X:24
T:Burn’s Farewell to Ayrshire Dix.24
M:2/4
L:1/8
Q:1/4=120
S:Anon. MS dated 1811, from Dixon collection, Holton le Moor, Lincs.
R:Song
O:England;Lincolnshire;Holton le Moor
Z:vmp.R.Greig 2012 <http://www.village-music-project.org.uk>
K:D
d2(Ad)|e2A2|(fe) (fg)|f2ez|!
w:Scenes o-f woe and sc-enes o-f pleas-ure
d2 (cB)|(ce) (ef)|c2B2|A4|!
w:scenes th-at form—er thoughts re-new
a2(gf)|g2f2|(ef) (de)|c2Az|!
w:Scenes o-f woe and sc-enes o-f pleas-ure
(dc) (de)|d2e2|(fe) (fg)|f3z|!
w:N-ow a-a sad and l-ast ad–ieu
(gf) (ed)|c2(de)|f2e2|d4:|
w:N-ow a-a sad a-nd last a-dieu.

